X: 29175
T: New Brig Of Glasgow, The
R: strathspey
M: 4/4
K: Gdorian
D|G>AB>c A<F F2|G>AB>c d<g g2|f>dc>B A/B/c/B/ A>^F|G>AB>c d<D D^F|
G>AB>c A<F F2|G>AB>c d<g g2|f>dc>B A/B/c/B/ A>^F|G>AB>c d<D D||
G|G<gg>a f>gf>c|d<gg>d g/a/b/a/ g>d|d<gg>a f>gf>c|d>g b/a/g/^f/ g2 g>G|
G<gg>a f>gf>c|d<gg>d g/a/b/a/ g>d|f<ad<f c<fa<f|G>AB>c d<D G||

